assets/illustrations/multisize/40/accdb.svg

<svg id="961a4c7b-48cc-47d0-ae8f-cd320b10d41d" data-name="ICONS" xmlns="http://www.w3.org/2000/svg" xmlns:xlink="http://www.w3.org/1999/xlink" viewBox="0 0 40 40"><defs><linearGradient id="821263b2-e025-4010-b98c-8d894ade3b4a" x1="6.09939" y1="4.4339" x2="35.39486" y2="39.34688" gradientUnits="userSpaceOnUse"><stop offset="0" stop-color="#fff" stop-opacity="0"/><stop offset="0.86247" stop-color="#5e5e5e" stop-opacity="0.06315"/><stop offset="1" stop-opacity="0.1"/></linearGradient><linearGradient id="5b8ed1b3-fa55-4222-9503-97dd677b0f50" x1="32" y1="13.90625" x2="32" y2="11.08751" gradientUnits="userSpaceOnUse"><stop offset="0" stop-color="#828282" stop-opacity="0"/><stop offset="0.86247" stop-color="#303030" stop-opacity="0.06315"/><stop offset="1" stop-opacity="0.1"/></linearGradient><linearGradient id="eaa211a1-70a5-47f8-9cdb-6756d4d17031" x1="26.79167" y1="9.70833" x2="31.72991" y2="4.77009" gradientUnits="userSpaceOnUse"><stop offset="0" stop-color="#fff" stop-opacity="0"/><stop offset="0.44604" stop-color="#fff" stop-opacity="0.00799"/><stop offset="0.63551" stop-color="#fff" stop-opacity="0.03616"/><stop offset="0.77636" stop-color="#fff" stop-opacity="0.08493"/><stop offset="0.8924" stop-color="#fff" stop-opacity="0.15385"/><stop offset="0.99328" stop-color="#fff" stop-opacity="0.24291"/><stop offset="1" stop-color="#fff" stop-opacity="0.25"/></linearGradient><linearGradient id="c547806c-62c9-43a1-9efc-0f1c7f690777" x1="14.27844" y1="36.94138" x2="14.65697" y2="33.3769" gradientUnits="userSpaceOnUse"><stop offset="0" stop-color="#828282" stop-opacity="0"/><stop offset="0.99719" stop-opacity="0.2"/></linearGradient><linearGradient id="69cda143-a75f-46a7-8192-3e9a8b700b4f" x1="11.5" y1="32.79198" x2="11.5" y2="12.21733" gradientUnits="userSpaceOnUse"><stop offset="0" stop-color="#fff" stop-opacity="0"/><stop offset="0.52587" stop-color="#fff" stop-opacity="0.00735"/><stop offset="0.71529" stop-color="#fff" stop-opacity="0.03396"/><stop offset="0.8503" stop-color="#fff" stop-opacity="0.0803"/><stop offset="0.95875" stop-color="#fff" stop-opacity="0.14595"/><stop offset="1" stop-color="#fff" stop-opacity="0.18"/></linearGradient></defs><title>FileTypeIcons_Master_All_NEW</title><polygon points="10 3 29 3 36 10 36 37 10 37 10 3" fill="#fff"/><path d="M29,2H9V38H37V10Zm0,1.5L35.5,10H29ZM36,37H10V3H28v8h8Z" fill="#949494"/><path d="M32,21V32H20V21H32m1-1H19V33H33V20Z" fill="#c8c8c8"/><path d="M27,15v6H16V15H27m1-1H15v8H28V14Z" fill="#c8c8c8"/><polygon points="3 13 20 11 20 34 3 32 3 13" fill="#a4373a"/><path d="M16,27H13.74323l-.65395-2.00209H9.81952L9.172,27H6.928l3.34669-9h2.45552Zm-3.38516-3.55858-.98734-3.0251a3.849,3.849,0,0,1-.15387-.80963h-.05129a3.38,3.38,0,0,1-.16028.78452L10.2619,23.44142Z" fill="#fff"/><rect x="22" y="24" width="2" height="1" fill="#f7a8ab"/><rect x="20" y="20" width="13" height="3" fill="#f7a8ab"/><rect x="20" y="14" width="8" height="3" fill="#f7a8ab"/><rect x="26" y="24" width="4" height="1" fill="#c8c8c8"/><rect x="26" y="27" width="4" height="1" fill="#c8c8c8"/><rect x="21" y="18" width="4" height="1" fill="#c8c8c8"/><rect x="22" y="27" width="2" height="1" fill="#f7a8ab"/><rect x="26" y="30" width="4" height="1" fill="#c8c8c8"/><rect x="22" y="30" width="2" height="1" fill="#f7a8ab"/><path d="M29,2H9V12.29419L3,13V32l6,.70581V38H37V10Z" fill="url(#821263b2-e025-4010-b98c-8d894ade3b4a)"/><rect x="28" y="11" width="8" height="3" fill="url(#5b8ed1b3-fa55-4222-9503-97dd677b0f50)"/><polygon points="29 2 9 2 9 3 28 3 28 11 36 11 36 25 37 25 37 10 29 2" fill="url(#eaa211a1-70a5-47f8-9cdb-6756d4d17031)"/><polygon points="20 37 9 37 9 32.71 20 34 20 37" fill="url(#c547806c-62c9-43a1-9efc-0f1c7f690777)"/><polygon points="20 34 3 32 3 13 20 11 20 34" fill="url(#69cda143-a75f-46a7-8192-3e9a8b700b4f)"/></svg>

<?xml version="1.0" encoding="utf-8"?>
<!-- Generator: Adobe Illustrator 21.1.0, SVG Export Plug-In . SVG Version: 6.00 Build 0)  -->
<svg version="1.1" xmlns="http://www.w3.org/2000/svg" xmlns:xlink="http://www.w3.org/1999/xlink" x="0px" y="0px"
	 viewBox="0 0 40 40" enable-background="new 0 0 40 40" xml:space="preserve">
<g id="TEMPLATE" display="none">
	<g display="inline">
		<path fill="#D0D0D0" d="M40,0v40H0V0H40 M41-1h-1H0h-1v1v40v1h1h40h1v-1V0V-1L41-1z"/>
	</g>
	<g display="inline" opacity="0.1">
		<path fill="#FF3A6D" d="M38,2v36H2V2H38 M40,0H0v40h40V0L40,0z"/>
	</g>
</g>
<g id="ICONS">
	<g>
		<polygon fill="#FFFFFF" points="10,3 29,3 36,10 36,37 10,37 		"/>
		<path fill="#949494" d="M29,2H9v36h28V10L29,2z M29,3.5l6.5,6.5H29V3.5z M36,37H10V3h18v8h8V37z"/>
	</g>
	<g>
		<path fill="#C8C8C8" d="M32,21v11H20V21H32 M33,20H19v13h14V20L33,20z"/>
	</g>
	<g>
		<path fill="#C8C8C8" d="M27,15v6H16v-6H27 M28,14H15v8h13V14L28,14z"/>
	</g>
	<polygon fill="#A4373A" points="3,13 20,11 20,34 3,32 	"/>
	<g>
		<path fill="#FFFFFF" d="M16,27h-2.2568l-0.654-2.0021H9.8195L9.172,27H6.928l3.3467-9h2.4555L16,27z M12.6148,23.4414
			l-0.9873-3.0251c-0.0728-0.2259-0.1241-0.4958-0.1539-0.8096h-0.0513c-0.0215,0.2636-0.0749,0.5252-0.1603,0.7845l-1.0002,3.0502
			H12.6148z"/>
	</g>
	<rect x="22" y="24" fill="#F7A8AB" width="2" height="1"/>
	<rect x="20" y="20" fill="#F7A8AB" width="13" height="3"/>
	<rect x="20" y="14" fill="#F7A8AB" width="8" height="3"/>
	<g>
		<rect x="26" y="24" fill="#C8C8C8" width="4" height="1"/>
	</g>
	<g>
		<rect x="26" y="27" fill="#C8C8C8" width="4" height="1"/>
	</g>
	<g>
		<rect x="21" y="18" fill="#C8C8C8" width="4" height="1"/>
	</g>
	<rect x="22" y="27" fill="#F7A8AB" width="2" height="1"/>
	<g>
		<rect x="26" y="30" fill="#C8C8C8" width="4" height="1"/>
	</g>
	<rect x="22" y="30" fill="#F7A8AB" width="2" height="1"/>
	<linearGradient id="SVGID_1_" gradientUnits="userSpaceOnUse" x1="6.0994" y1="4.4339" x2="35.3949" y2="39.3469">
		<stop  offset="0" style="stop-color:#FFFFFF;stop-opacity:0"/>
		<stop  offset="0.2264" style="stop-color:#FCFCFC;stop-opacity:0.0226"/>
		<stop  offset="0.3626" style="stop-color:#F4F4F4;stop-opacity:0.0363"/>
		<stop  offset="0.475" style="stop-color:#E6E6E6;stop-opacity:0.0475"/>
		<stop  offset="0.5744" style="stop-color:#D1D1D1;stop-opacity:0.0574"/>
		<stop  offset="0.6652" style="stop-color:#B7B7B7;stop-opacity:0.0665"/>
		<stop  offset="0.7498" style="stop-color:#979797;stop-opacity:0.075"/>
		<stop  offset="0.8297" style="stop-color:#707070;stop-opacity:0.083"/>
		<stop  offset="0.9057" style="stop-color:#444444;stop-opacity:0.0906"/>
		<stop  offset="0.9761" style="stop-color:#121212;stop-opacity:0.0976"/>
		<stop  offset="1" style="stop-color:#000000;stop-opacity:0.1"/>
	</linearGradient>
	<path fill="url(#SVGID_1_)" d="M29,2H9v10.2942L3,13v19l6,0.7058V38h28V10L29,2z"/>
	<linearGradient id="SVGID_2_" gradientUnits="userSpaceOnUse" x1="32" y1="13.9063" x2="32" y2="11.0875">
		<stop  offset="0" style="stop-color:#828282;stop-opacity:0"/>
		<stop  offset="0.2812" style="stop-color:#7F7F7F;stop-opacity:0.0281"/>
		<stop  offset="0.4503" style="stop-color:#777777;stop-opacity:0.045"/>
		<stop  offset="0.5899" style="stop-color:#696969;stop-opacity:0.059"/>
		<stop  offset="0.7133" style="stop-color:#545454;stop-opacity:0.0713"/>
		<stop  offset="0.8259" style="stop-color:#3A3A3A;stop-opacity:0.0826"/>
		<stop  offset="0.9294" style="stop-color:#1A1A1A;stop-opacity:0.0929"/>
		<stop  offset="1" style="stop-color:#000000;stop-opacity:0.1"/>
	</linearGradient>
	<rect x="28" y="11" fill="url(#SVGID_2_)" width="8" height="3"/>
	<linearGradient id="SVGID_3_" gradientUnits="userSpaceOnUse" x1="26.7917" y1="9.7083" x2="31.7299" y2="4.7701">
		<stop  offset="0" style="stop-color:#FFFFFF;stop-opacity:0"/>
		<stop  offset="0.8537" style="stop-color:#FFFFFF;stop-opacity:0.2134"/>
		<stop  offset="1" style="stop-color:#FFFFFF;stop-opacity:0.25"/>
	</linearGradient>
	<polygon fill="url(#SVGID_3_)" points="29,2 9,2 9,3 28,3 28,11 35.9999,10.9999 36,25 37,25 37,10 	"/>
	<linearGradient id="SVGID_4_" gradientUnits="userSpaceOnUse" x1="14.2784" y1="36.9414" x2="14.657" y2="33.3769">
		<stop  offset="0" style="stop-color:#828282;stop-opacity:0"/>
		<stop  offset="0.1699" style="stop-color:#7E7E7E;stop-opacity:0.0341"/>
		<stop  offset="0.346" style="stop-color:#717171;stop-opacity:0.0694"/>
		<stop  offset="0.5248" style="stop-color:#5D5D5D;stop-opacity:0.1053"/>
		<stop  offset="0.7057" style="stop-color:#404040;stop-opacity:0.1415"/>
		<stop  offset="0.8863" style="stop-color:#1B1B1B;stop-opacity:0.1778"/>
		<stop  offset="0.9972" style="stop-color:#000000;stop-opacity:0.2"/>
	</linearGradient>
	<polygon fill="url(#SVGID_4_)" points="20,37 9,37 9,32.71 20,34 	"/>
	<linearGradient id="SVGID_5_" gradientUnits="userSpaceOnUse" x1="11.5" y1="32.792" x2="11.5" y2="12.2173">
		<stop  offset="0" style="stop-color:#FFFFFF;stop-opacity:0"/>
		<stop  offset="0.8587" style="stop-color:#FFFFFF;stop-opacity:0.1546"/>
		<stop  offset="1" style="stop-color:#FFFFFF;stop-opacity:0.18"/>
	</linearGradient>
	<polygon fill="url(#SVGID_5_)" points="20,34 3,32 3,13 20,11 	"/>
</g>
</svg>
